X:097
T: Wife of My Own (A)
N: O'Farrell's Pocket Companion v.2 (Sky ed. p.55)
N: "Irish"
M: 9/8
L: 1/8
R: slip jig
Q: 300
K: Em
EFE G2A B3|EFE G2A BGE|EFE G2A B3|DED FGA AFD :|
gfg agf e3|E2E G2A BGE|gbg faf d3|DED FAd AFD :|
B/d/BG A/c/AF G2E|E2E G2A BGE|B/d/BG A/d/AF G2E|
DED FGA AFD :|
